src/components/00-materials/images-raw/Eye_1.svg

<svg width="96" height="96" viewBox="0 0 96 96" fill="none" xmlns="http://www.w3.org/2000/svg">
<path d="M84.187 50.5505L84.3955 50.2583L84.1853 49.9674C73.4086 35.0442 55.622 32.8301 46 32.8301C38.4658 32.8301 32.033 34.1483 26.4149 36.9605C20.7958 39.7732 16.0219 44.0654 11.7838 49.9685L11.5747 50.2597L11.7834 50.5512C20.9128 63.302 34.0753 70.6401 48 70.6401C61.9246 70.6401 75.0874 63.3021 84.187 50.5505ZM10.5881 49.8689L10.5892 49.8674C15.2821 43.1824 20.5368 38.6808 26.4025 35.8465C32.2707 33.011 38.7796 31.8301 46 31.8301C60.4882 31.8301 76.0089 36.5399 85.3108 49.7874L85.3197 49.8L85.3293 49.8121C85.4225 49.9288 85.4771 50.0716 85.4855 50.2207C85.4938 50.3661 85.4577 50.5106 85.3822 50.635C76.022 64.0041 62.3797 71.6401 48 71.6401C33.6161 71.6401 19.9798 64.0097 10.5892 50.6328L10.5881 50.6313C10.5093 50.5198 10.4669 50.3866 10.4669 50.2501C10.4669 50.1135 10.5093 49.9803 10.5881 49.8689Z" stroke="#00008F"/>
<path d="M17.34 33.8599C25.26 26.9899 34.52 23.8599 45.27 23.8599C55.324 23.7845 65.1906 26.5807 73.71 31.9199" stroke="#00008F" stroke-width="2" stroke-linecap="round" stroke-linejoin="round"/>
<path d="M66.33 41.8699C65.2767 39.3729 63.7484 37.1042 61.83 35.1899C59.93 33.2799 52.77 32.3599 46.23 32.4099C39.69 32.4599 32.53 33.2799 30.63 35.1899C28.6798 37.1399 27.1327 39.4551 26.0772 42.003C25.0218 44.551 24.4785 47.282 24.4785 50.0399C24.4785 52.7978 25.0218 55.5288 26.0772 58.0767C27.1327 60.6247 28.6798 62.9398 30.63 64.8899C34.8599 68.8486 40.4366 71.0511 46.23 71.0511C52.0234 71.0511 57.6001 68.8486 61.83 64.8899C64.7811 61.9376 66.7854 58.1727 67.5869 54.076C68.3884 49.9793 67.9509 45.7367 66.33 41.8899V41.8699Z" stroke="#00008F" stroke-width="2" stroke-linecap="round" stroke-linejoin="round"/>
<path d="M56.5045 47.3699L56.4965 47.3649C56.4155 47.3147 56.3218 47.2887 56.2265 47.2899L56.2156 47.2901V47.2899C56.1571 47.2894 56.0989 47.2992 56.0438 47.3188C55.62 47.4801 55.1729 47.5715 54.7199 47.5896L54.7099 47.59H54.7C53.6232 47.59 52.5905 47.1622 51.8291 46.4008C51.0677 45.6394 50.64 44.6067 50.64 43.5299V43.5215L50.6403 43.513C50.6648 42.7916 50.8875 42.091 51.2838 41.488C51.323 41.4175 51.3478 41.3399 51.3569 41.2597C51.366 41.1782 51.3587 41.0958 51.3353 41.0174C51.3067 40.9391 51.2628 40.8673 51.2062 40.8061C51.1489 40.744 51.0796 40.6941 51.0026 40.6594C49.7975 40.1612 48.5056 39.9064 47.2014 39.9099L56.5045 47.3699ZM56.5045 47.3699L56.5127 47.3745M56.5045 47.3699L56.5127 47.3745M56.5127 47.3745C56.5836 47.4149 56.6451 47.47 56.6929 47.5362C56.7405 47.6022 56.7735 47.6776 56.7896 47.7575C56.9127 48.3847 56.9764 49.0221 56.98 49.6613C56.9797 51.588 56.4086 53.4714 55.3388 55.0738C54.2687 56.6765 52.7476 57.9262 50.9677 58.665C49.1878 59.4038 47.2289 59.5985 45.3383 59.2246C43.4478 58.8507 41.7105 57.925 40.3458 56.5643C38.9811 55.2036 38.0502 53.4689 37.6708 51.5795C37.2914 49.6901 37.4804 47.7306 38.214 45.9485C38.9476 44.1664 40.1928 42.6417 41.7924 41.567C43.392 40.4922 45.2742 39.9156 47.2013 39.9099L56.5127 47.3745ZM49.9632 41.9081L50.1736 41.3901L49.6354 41.2387C48.8525 41.0183 48.0427 40.9077 47.2293 40.9099H47.2C45.4694 40.9099 43.7777 41.4231 42.3387 42.3846C40.8998 43.3461 39.7783 44.7126 39.116 46.3115C38.4538 47.9103 38.2805 49.6697 38.6181 51.367C38.9557 53.0643 39.7891 54.6234 41.0128 55.8471C42.2365 57.0708 43.7956 57.9042 45.4929 58.2418C47.1903 58.5794 48.9496 58.4062 50.5485 57.7439C52.1473 57.0816 53.5139 55.9601 54.4753 54.5212C55.4368 53.0823 55.95 51.3905 55.95 49.66V49.0299V48.4404L55.3683 48.5367C55.1482 48.5731 54.9253 48.5909 54.7022 48.59L54.7009 48.59C53.3594 48.5875 52.0735 48.0536 51.1249 47.105C50.1769 46.1569 49.643 44.872 49.64 43.5313C49.6441 42.9747 49.7538 42.4238 49.9632 41.9081Z" stroke="#00008F"/>
</svg>

<svg width="96" height="96" viewBox="0 0 96 96" fill="none" xmlns="http://www.w3.org/2000/svg"><path d="M84.187 50.55l.209-.292-.21-.29C73.408 35.043 55.621 32.83 46 32.83c-7.534 0-13.967 1.318-19.585 4.13-5.62 2.813-10.393 7.105-14.631 13.008l-.21.292.21.291C20.912 63.302 34.074 70.641 48 70.641s27.087-7.339 36.187-20.09zm-73.599-.681l.001-.002c4.693-6.685 9.948-11.186 15.813-14.02C32.272 33.01 38.78 31.83 46 31.83c14.488 0 30.009 4.71 39.31 17.957l.01.013.01.012a.72.72 0 01.052.823C76.022 64.005 62.38 71.64 48 71.64c-14.384 0-28.02-7.63-37.41-21.007l-.002-.002a.66.66 0 010-.762z" stroke="#00008F"/><path d="M17.34 33.86c7.92-6.87 17.18-10 27.93-10a52.81 52.81 0 0128.44 8.06" stroke="#00008F" stroke-width="2" stroke-linecap="round" stroke-linejoin="round"/><path d="M66.33 41.87a20.927 20.927 0 00-4.5-6.68c-1.9-1.91-9.06-2.83-15.6-2.78-6.54.05-13.7.87-15.6 2.78a21.001 21.001 0 000 29.7 22.83 22.83 0 0031.2 0 21 21 0 004.5-23v-.02z" stroke="#00008F" stroke-width="2" stroke-linecap="round" stroke-linejoin="round"/><path d="M56.505 47.37l-.009-.005a.5.5 0 00-.27-.075h-.01v0a.5.5 0 00-.172.029c-.424.161-.871.252-1.324.27l-.01.001h-.01a4.06 4.06 0 01-4.06-4.06v-.017a3.93 3.93 0 01.644-2.025.612.612 0 00.051-.47.63.63 0 00-.332-.359 9.88 9.88 0 00-3.802-.75l9.303 7.46zm0 0l.008.005m-.008-.005l.008.005m0 0a.57.57 0 01.277.383c.123.627.186 1.264.19 1.903a9.75 9.75 0 11-9.779-9.751l9.312 7.465zm-6.55-5.467l.21-.518-.538-.151a8.792 8.792 0 00-2.406-.33H47.2a8.75 8.75 0 108.75 8.751v-1.22l-.582.097c-.22.036-.443.054-.666.053h-.001a5.07 5.07 0 01-5.061-5.059 4.401 4.401 0 01.323-1.623z" stroke="#00008F"/></svg>
